X: 7426
T: Cloone, The
R: reel
M: 4/4
K: Ddorian
|:dcAE G3A|GEcE G3e|dcAE G3A|GEcE ED D2|
dcAE G3A|GEcE G3A|c2ec gced|cAGE ED D2:|
|:c2ec gcec|g3a gede|c2ec gcea|gedc AGGB|
c2ec gcec|g3a gedg|agec d2ed|cAGE ED D2:|

